SVG_Azure_Grouped/Storage/Data Catalog.svg

<?xml version="1.0" encoding="UTF-8" standalone="no"?>
<!-- Generated by Microsoft Visio, SVG Export Data Catalog.svg Page-1 -->

<svg
   xmlns:dc="http://purl.org/dc/elements/1.1/"
   xmlns:cc="http://creativecommons.org/ns#"
   xmlns:rdf="http://www.w3.org/1999/02/22-rdf-syntax-ns#"
   xmlns:svg="http://www.w3.org/2000/svg"
   xmlns="http://www.w3.org/2000/svg"
   xmlns:sodipodi="http://sodipodi.sourceforge.net/DTD/sodipodi-0.dtd"
   xmlns:inkscape="http://www.inkscape.org/namespaces/inkscape"
   width="0.70862836in"
   height="0.78746945in"
   viewBox="0 0 51.021421 56.697661"
   xml:space="preserve"
   class="st10"
   version="1.1"
   id="svg81"
   sodipodi:docname="Data Catalog.svg"
   style="font-size:12px;overflow:visible;color-interpolation-filters:sRGB;fill:none;fill-rule:evenodd;stroke-linecap:square;stroke-miterlimit:3"
   inkscape:version="0.92.5 (2060ec1f9f, 2020-04-08)"><metadata
   id="metadata85"><rdf:RDF><cc:Work
       rdf:about=""><dc:format>image/svg+xml</dc:format><dc:type
         rdf:resource="http://purl.org/dc/dcmitype/StillImage" /></cc:Work></rdf:RDF></metadata><sodipodi:namedview
   pagecolor="#ffffff"
   bordercolor="#666666"
   borderopacity="1"
   objecttolerance="10"
   gridtolerance="10"
   guidetolerance="10"
   inkscape:pageopacity="0"
   inkscape:pageshadow="2"
   inkscape:window-width="640"
   inkscape:window-height="480"
   id="namedview83"
   showgrid="false"
   inkscape:zoom="1.3555291"
   inkscape:cx="34.015903"
   inkscape:cy="37.804535"
   inkscape:window-x="0"
   inkscape:window-y="0"
   inkscape:window-maximized="0"
   inkscape:current-layer="svg81" />
	<style
   type="text/css"
   id="style2">
	<![CDATA[
		.st1 {fill:#999999;stroke:none;stroke-linecap:butt;stroke-width:36.9385}
		.st2 {fill:#999999;fill-opacity:0.5;stroke:none;stroke-linecap:butt;stroke-width:36.9385}
		.st3 {fill:#ffffff}
		.st4 {stroke:none;stroke-linecap:butt;stroke-width:36.9385}
		.st5 {fill:url(#grad0-13);stroke:none;stroke-linecap:butt;stroke-width:36.9385}
		.st6 {fill:url(#grad0-17);stroke:none;stroke-linecap:butt;stroke-width:36.9385}
		.st7 {fill:#e8e8e8;stroke:none;stroke-linecap:butt;stroke-width:36.9385}
		.st8 {fill:#50e6ff;stroke:none;stroke-linecap:butt;stroke-width:36.9385}
		.st9 {fill:#198ab3;stroke:none;stroke-linecap:butt;stroke-width:36.9385}
		.st10 {fill:none;fill-rule:evenodd;font-size:12px;overflow:visible;stroke-linecap:square;stroke-miterlimit:3}
	]]>
	</style>

	<defs
   id="Patterns_And_Gradients">
		<linearGradient
   id="grad0-13"
   x1="-2.0621713e-05"
   y1="80.980505"
   x2="37.143182"
   y2="80.980505"
   gradientTransform="scale(0.90460796,1.1054512)"
   gradientUnits="userSpaceOnUse">
			<stop
   offset="0"
   stop-color="#b3b2b3"
   stop-opacity="1"
   id="stop4" />
			<stop
   offset="0.38"
   stop-color="#afaeaf"
   stop-opacity="1"
   id="stop6" />
			<stop
   offset="0.76"
   stop-color="#a2a2a2"
   stop-opacity="1"
   id="stop8" />
			<stop
   offset="1"
   stop-color="#979797"
   stop-opacity="1"
   id="stop10" />
		</linearGradient>
		<linearGradient
   id="grad0-17"
   x1="0"
   y1="101.18278"
   x2="29.375"
   y2="101.18278"
   gradientTransform="scale(0.9998298,1.0001702)"
   gradientUnits="userSpaceOnUse">
			<stop
   offset="0"
   stop-color="#005ba1"
   stop-opacity="1"
   id="stop13" />
			<stop
   offset="0.07"
   stop-color="#0060a9"
   stop-opacity="1"
   id="stop15" />
			<stop
   offset="0.36"
   stop-color="#0071c8"
   stop-opacity="1"
   id="stop17" />
			<stop
   offset="0.52"
   stop-color="#0078d4"
   stop-opacity="1"
   id="stop19" />
			<stop
   offset="0.64"
   stop-color="#0074cd"
   stop-opacity="1"
   id="stop21" />
			<stop
   offset="0.82"
   stop-color="#006abb"
   stop-opacity="1"
   id="stop23" />
			<stop
   offset="1"
   stop-color="#005ba1"
   stop-opacity="1"
   id="stop25" />
		</linearGradient>
	</defs>
	<g
   id="g79"
   transform="translate(-36.938481,-36.94389)">
		<title
   id="title29">Page-1</title>
		<g
   id="group20387-1"
   transform="translate(36.9385,-36.9385)">
			<title
   id="title31">Data Catalog.20387</title>
			<g
   id="group20388-2">
				<title
   id="title33">layer1</title>
				<g
   id="shape20389-3"
   transform="translate(0.0671134,-11.3719)">
					<title
   id="title35">path28</title>
					<path
   d="m 0,89.56 3.36,-3.77 a 1.61127,1.60074 0 0 1 1.1,-0.53 h 31.26 a 2.21549,2.20102 0 0 1 2.38,2.23 v 38.75 a 1.61127,1.60074 0 0 1 -0.54,1.17 l -3.35,3.17 z"
   class="st1"
   id="path37"
   inkscape:connector-curvature="0"
   style="fill:#999999;stroke:none;stroke-width:36.93849945;stroke-linecap:butt" />
				</g>
				<g
   id="shape20390-5"
   transform="translate(0.0671134,-11.3719)">
					<title
   id="title40">path30</title>
					<path
   d="m 0,89.56 3.36,-3.77 a 1.61127,1.60074 0 0 1 1.1,-0.53 h 31.26 a 2.21549,2.20102 0 0 1 2.38,2.23 v 38.75 a 1.61127,1.60074 0 0 1 -0.54,1.17 l -3.35,3.17 z"
   class="st2"
   id="path42"
   inkscape:connector-curvature="0"
   style="fill:#999999;fill-opacity:0.5;stroke:none;stroke-width:36.93849945;stroke-linecap:butt" />
				</g>
				<g
   id="shape20391-7"
   transform="translate(2.68536,-13.0393)">
					<title
   id="title45">path32</title>
					<path
   d="m 0,91.22 1.98,-2.26 a 1.47699,1.46735 0 0 1 1.08,-0.37 h 29.17 a 1.40986,1.40065 0 0 1 1.41,1.4 v 36.72 a 1.47699,1.46735 0 0 1 -0.44,1.03 l -3.12,2.84 z"
   class="st3"
   id="path47"
   inkscape:connector-curvature="0"
   style="fill:#ffffff" />
					<path
   d="m 0,91.22 1.98,-2.26 a 1.47699,1.46735 0 0 1 1.08,-0.37 h 29.17 a 1.40986,1.40065 0 0 1 1.41,1.4 v 36.72 a 1.47699,1.46735 0 0 1 -0.44,1.03 l -3.12,2.84"
   class="st4"
   id="path49"
   inkscape:connector-curvature="0"
   style="stroke:none;stroke-width:36.93849945;stroke-linecap:butt" />
				</g>
				<g
   id="shape20392-10"
   transform="translate(0,-11.3719)">
					<title
   id="title52">path34</title>
					<path
   d="M 32.56,89.52 H 0 v 40.02 a 1.04061,1.03381 -180 0 0 1.04,1.04 h 31.52 a 1.04061,1.03381 -180 0 0 1.04,-1.04 V 90.56 a 1.04061,1.03381 -180 0 0 -1.04,-1.04 z"
   class="st5"
   id="path54"
   inkscape:connector-curvature="0"
   style="fill:url(#grad0-13);stroke:none;stroke-width:36.93849945;stroke-linecap:butt" />
				</g>
				<g
   id="shape20393-14"
   transform="translate(21.6514)">
					<title
   id="title57">path36</title>
					<path
   d="M 14.67,105.83 C 6.58,105.83 0,103.76 0,101.2 v 24.74 c 0,2.54 6.45,4.6 14.47,4.64 h 0.2 c 8.12,0 14.7,-2.07 14.7,-4.64 V 101.2 c 0,2.56 -6.58,4.63 -14.7,4.63 z"
   class="st6"
   id="path59"
   inkscape:connector-curvature="0"
   style="fill:url(#grad0-17);stroke:none;stroke-width:36.93849945;stroke-linecap:butt" />
				</g>
				<g
   id="shape20394-18"
   transform="translate(21.6514,-24.7448)">
					<title
   id="title62">path38</title>
					<path
   d="m 29.37,125.94 c 0,2.57 -6.71,4.64 -14.7,4.64 -7.99,0 -14.67,-2.07 -14.67,-4.64 0,-2.57 6.71,-4.67 14.67,-4.67 7.95,0 14.7,2.1 14.7,4.67 z"
   class="st7"
   id="path64"
   inkscape:connector-curvature="0"
   style="fill:#e8e8e8;stroke:none;stroke-width:36.93849945;stroke-linecap:butt" />
				</g>
				<g
   id="shape20395-20"
   transform="translate(25.0754,-26.8124)">
					<title
   id="title67">path40</title>
					<path
   d="m 22.52,127.64 c 0,1.64 -5.06,2.94 -11.27,2.94 -6.21,0 -11.25,-1.3 -11.25,-2.94 0,-1.63 5.04,-2.97 11.25,-2.97 6.21,0 11.27,1.34 11.27,2.97 z"
   class="st8"
   id="path69"
   inkscape:connector-curvature="0"
   style="fill:#50e6ff;stroke:none;stroke-width:36.93849945;stroke-linecap:butt" />
				</g>
				<g
   id="shape20396-22"
   transform="translate(27.425,-26.8124)">
					<title
   id="title72">path42</title>
					<path
   d="m 8.9,128.31 a 29.842,29.6471 -180 0 0 -8.9,1.13 29.5063,29.3136 -180 0 0 8.9,1.14 29.7413,29.547 -180 0 0 8.92,-1.14 30.2113,30.0139 -180 0 0 -8.92,-1.13 z"
   class="st9"
   id="path74"
   inkscape:connector-curvature="0"
   style="fill:#198ab3;stroke:none;stroke-width:36.93849945;stroke-linecap:butt" />
				</g>
			</g>
		</g>
	</g>
</svg>

<?xml version="1.0" encoding="UTF-8" standalone="no"?>
<!DOCTYPE svg PUBLIC "-//W3C//DTD SVG 1.1//EN" "http://www.w3.org/Graphics/SVG/1.1/DTD/svg11.dtd">
<!-- Generated by Microsoft Visio, SVG Export Data Catalog.svg Page-1 -->
<svg xmlns="http://www.w3.org/2000/svg" xmlns:xlink="http://www.w3.org/1999/xlink" xmlns:ev="http://www.w3.org/2001/xml-events"
		width="1.73473in" height="1.81356in" viewBox="0 0 124.901 130.576" xml:space="preserve" color-interpolation-filters="sRGB"
		class="st10">
	<style type="text/css">
	<![CDATA[
		.st1 {fill:#999999;stroke:none;stroke-linecap:butt;stroke-width:36.9385}
		.st2 {fill:#999999;fill-opacity:0.5;stroke:none;stroke-linecap:butt;stroke-width:36.9385}
		.st3 {fill:#ffffff}
		.st4 {stroke:none;stroke-linecap:butt;stroke-width:36.9385}
		.st5 {fill:url(#grad0-13);stroke:none;stroke-linecap:butt;stroke-width:36.9385}
		.st6 {fill:url(#grad0-17);stroke:none;stroke-linecap:butt;stroke-width:36.9385}
		.st7 {fill:#e8e8e8;stroke:none;stroke-linecap:butt;stroke-width:36.9385}
		.st8 {fill:#50e6ff;stroke:none;stroke-linecap:butt;stroke-width:36.9385}
		.st9 {fill:#198ab3;stroke:none;stroke-linecap:butt;stroke-width:36.9385}
		.st10 {fill:none;fill-rule:evenodd;font-size:12px;overflow:visible;stroke-linecap:square;stroke-miterlimit:3}
	]]>
	</style>

	<defs id="Patterns_And_Gradients">
		<linearGradient id="grad0-13" x1="0" y1="0" x2="1" y2="0" gradientTransform="rotate(90 0.5 0.5)">
			<stop offset="0" stop-color="#b3b2b3" stop-opacity="1"/>
			<stop offset="0.38" stop-color="#afaeaf" stop-opacity="1"/>
			<stop offset="0.76" stop-color="#a2a2a2" stop-opacity="1"/>
			<stop offset="1" stop-color="#979797" stop-opacity="1"/>
		</linearGradient>
		<linearGradient id="grad0-17" x1="0" y1="0" x2="1" y2="0" gradientTransform="rotate(0 0.5 0.5)">
			<stop offset="0" stop-color="#005ba1" stop-opacity="1"/>
			<stop offset="0.07" stop-color="#0060a9" stop-opacity="1"/>
			<stop offset="0.36" stop-color="#0071c8" stop-opacity="1"/>
			<stop offset="0.52" stop-color="#0078d4" stop-opacity="1"/>
			<stop offset="0.64" stop-color="#0074cd" stop-opacity="1"/>
			<stop offset="0.82" stop-color="#006abb" stop-opacity="1"/>
			<stop offset="1" stop-color="#005ba1" stop-opacity="1"/>
		</linearGradient>
	</defs>
	<g>
		<title>Page-1</title>
		<g id="group19932-1" transform="translate(36.9385,-36.9385)">
			<title>Data Catalog.19932</title>
			<g id="group19933-2">
				<title>layer1</title>
				<g id="shape19934-3" transform="translate(0.0671134,-11.3719)">
					<title>path28</title>
					<path d="M0 89.56 L3.36 85.79 A1.61127 1.60074 0 0 1 4.46 85.26 L35.72 85.26 A2.21549 2.20102 0 0 1 38.1 87.49
								 L38.1 126.24 A1.61127 1.60074 0 0 1 37.56 127.41 L34.21 130.58 L0 89.56 Z" class="st1"/>
				</g>
				<g id="shape19935-5" transform="translate(0.0671134,-11.3719)">
					<title>path30</title>
					<path d="M0 89.56 L3.36 85.79 A1.61127 1.60074 0 0 1 4.46 85.26 L35.72 85.26 A2.21549 2.20102 0 0 1 38.1 87.49
								 L38.1 126.24 A1.61127 1.60074 0 0 1 37.56 127.41 L34.21 130.58 L0 89.56 Z" class="st2"/>
				</g>
				<g id="shape19936-7" transform="translate(2.68536,-13.0393)">
					<title>path32</title>
					<path d="M0 91.22 L1.98 88.96 A1.47699 1.46735 0 0 1 3.06 88.59 L32.23 88.59 A1.40986 1.40065 0 0 1 33.64 89.99
								 L33.64 126.71 A1.47699 1.46735 0 0 1 33.2 127.74 L30.08 130.58 L0 91.22 Z" class="st3"/>
					<path d="M0 91.22 L1.98 88.96 A1.47699 1.46735 0 0 1 3.06 88.59 L32.23 88.59 A1.40986 1.40065 0 0 1 33.64 89.99
								 L33.64 126.71 A1.47699 1.46735 0 0 1 33.2 127.74 L30.08 130.58" class="st4"/>
				</g>
				<g id="shape19937-10" transform="translate(0,-11.3719)">
					<title>path34</title>
					<path d="M32.56 89.52 L0 89.52 L0 129.54 A1.04061 1.03381 -180 0 0 1.04 130.58 L32.56 130.58 A1.04061 1.03381
								 -180 0 0 33.6 129.54 L33.6 90.56 A1.04061 1.03381 -180 0 0 32.56 89.52 L32.56 89.52 Z" class="st5"/>
				</g>
				<g id="shape19938-14" transform="translate(21.6514,3.12639E-13)">
					<title>path36</title>
					<path d="M14.67 105.83 C6.58 105.83 0 103.76 0 101.2 L0 125.94 C0 128.48 6.45 130.54 14.47 130.58 L14.67 130.58
								 C22.79 130.58 29.37 128.51 29.37 125.94 L29.37 101.2 C29.37 103.76 22.79 105.83 14.67 105.83 L14.67
								 105.83 Z" class="st6"/>
				</g>
				<g id="shape19939-18" transform="translate(21.6514,-24.7448)">
					<title>path38</title>
					<path d="M29.37 125.94 C29.37 128.51 22.66 130.58 14.67 130.58 C6.68 130.58 0 128.51 0 125.94 C0 123.37 6.71
								 121.27 14.67 121.27 C22.62 121.27 29.37 123.37 29.37 125.94 Z" class="st7"/>
				</g>
				<g id="shape19940-20" transform="translate(25.0754,-26.8124)">
					<title>path40</title>
					<path d="M22.52 127.64 C22.52 129.28 17.46 130.58 11.25 130.58 C5.04 130.58 0 129.28 0 127.64 C0 126.01 5.04
								 124.67 11.25 124.67 C17.46 124.67 22.52 126.01 22.52 127.64 Z" class="st8"/>
				</g>
				<g id="shape19941-22" transform="translate(27.425,-26.8124)">
					<title>path42</title>
					<path d="M8.9 128.31 A29.842 29.6471 -180 0 0 0 129.44 A29.5063 29.3136 -180 0 0 8.9 130.58 A29.7413 29.547 -180
								 0 0 17.82 129.44 A30.2113 30.0139 -180 0 0 8.9 128.31 Z" class="st9"/>
				</g>
			</g>
		</g>
	</g>
</svg>
